img/playerIcon.svg

<svg width="62" height="65" viewBox="0 0 62 65" fill="none" xmlns="http://www.w3.org/2000/svg">
<g filter="url(#filter0_d_1421_12530)">
<mask id="path-1-inside-1_1421_12530" fill="white">
<path fill-rule="evenodd" clip-rule="evenodd" d="M30.147 25.0164C32.6421 22.7373 34.2237 19.3505 34.2237 15.5693C34.2237 8.70644 29.0139 2.64297 22.5873 2.64297C16.1607 2.64297 10.9509 8.70644 10.9509 15.5693C10.9509 19.3194 12.5065 22.6815 14.9662 24.9599C9.35679 27.7375 5.5 33.5201 5.5 40.2036V55.143H39.5V40.2036C39.5 33.5652 35.695 27.8155 30.147 25.0164Z"/>
</mask>
<path fill-rule="evenodd" clip-rule="evenodd" d="M30.147 25.0164C32.6421 22.7373 34.2237 19.3505 34.2237 15.5693C34.2237 8.70644 29.0139 2.64297 22.5873 2.64297C16.1607 2.64297 10.9509 8.70644 10.9509 15.5693C10.9509 19.3194 12.5065 22.6815 14.9662 24.9599C9.35679 27.7375 5.5 33.5201 5.5 40.2036V55.143H39.5V40.2036C39.5 33.5652 35.695 27.8155 30.147 25.0164Z" fill="#3076FF"/>
<path d="M30.147 25.0164L29.1027 23.8732L27.4448 25.3875L29.4495 26.3989L30.147 25.0164ZM14.9662 24.9599L15.6533 26.3475L17.6665 25.3506L16.0184 23.824L14.9662 24.9599ZM5.5 55.143H3.95161V56.6914H5.5V55.143ZM39.5 55.143V56.6914H41.0484V55.143H39.5ZM32.6753 15.5693C32.6753 18.9157 31.2766 21.8875 29.1027 23.8732L31.1912 26.1597C34.0077 23.5871 35.772 19.7854 35.772 15.5693H32.6753ZM22.5873 4.19136C27.9896 4.19136 32.6753 9.38204 32.6753 15.5693H35.772C35.772 8.03084 30.0382 1.09459 22.5873 1.09459V4.19136ZM12.4993 15.5693C12.4993 9.38204 17.185 4.19136 22.5873 4.19136V1.09459C15.1364 1.09459 9.40254 8.03084 9.40254 15.5693H12.4993ZM16.0184 23.824C13.875 21.8386 12.4993 18.8881 12.4993 15.5693H9.40254C9.40254 19.7507 11.138 23.5244 13.9139 26.0958L16.0184 23.824ZM7.04839 40.2036C7.04839 34.1312 10.5511 28.874 15.6533 26.3475L14.2791 23.5723C8.16252 26.6011 3.95161 32.9091 3.95161 40.2036H7.04839ZM7.04839 55.143V40.2036H3.95161V55.143H7.04839ZM39.5 53.5946H5.5V56.6914H39.5V53.5946ZM37.9516 40.2036V55.143H41.0484V40.2036H37.9516ZM29.4495 26.3989C34.496 28.9449 37.9516 34.1721 37.9516 40.2036H41.0484C41.0484 32.9583 36.894 26.6861 30.8444 23.634L29.4495 26.3989Z" fill="black" mask="url(#path-1-inside-1_1421_12530)"/>
<mask id="path-3-inside-2_1421_12530" fill="white">
<path fill-rule="evenodd" clip-rule="evenodd" d="M47.147 26.0164C49.6421 23.7373 51.2237 20.3505 51.2237 16.5693C51.2237 9.70644 46.0139 3.64297 39.5873 3.64297C33.1607 3.64297 27.9509 9.70644 27.9509 16.5693C27.9509 20.3194 29.5065 23.6815 31.9662 25.9599C26.3568 28.7375 22.5 34.5201 22.5 41.2036V56.143H56.5V41.2036C56.5 34.5652 52.695 28.8155 47.147 26.0164Z"/>
</mask>
<path fill-rule="evenodd" clip-rule="evenodd" d="M47.147 26.0164C49.6421 23.7373 51.2237 20.3505 51.2237 16.5693C51.2237 9.70644 46.0139 3.64297 39.5873 3.64297C33.1607 3.64297 27.9509 9.70644 27.9509 16.5693C27.9509 20.3194 29.5065 23.6815 31.9662 25.9599C26.3568 28.7375 22.5 34.5201 22.5 41.2036V56.143H56.5V41.2036C56.5 34.5652 52.695 28.8155 47.147 26.0164Z" fill="#3076FF"/>
<path d="M47.147 26.0164L46.1027 24.8732L44.4448 26.3875L46.4495 27.3989L47.147 26.0164ZM31.9662 25.9599L32.6533 27.3475L34.6665 26.3506L33.0184 24.824L31.9662 25.9599ZM22.5 56.143H20.9516V57.6914H22.5V56.143ZM56.5 56.143V57.6914H58.0484V56.143H56.5ZM49.6753 16.5693C49.6753 19.9157 48.2766 22.8875 46.1027 24.8732L48.1912 27.1597C51.0077 24.5871 52.772 20.7854 52.772 16.5693H49.6753ZM39.5873 5.19136C44.9896 5.19136 49.6753 10.382 49.6753 16.5693H52.772C52.772 9.03084 47.0382 2.09459 39.5873 2.09459V5.19136ZM29.4993 16.5693C29.4993 10.382 34.185 5.19136 39.5873 5.19136V2.09459C32.1364 2.09459 26.4025 9.03084 26.4025 16.5693H29.4993ZM33.0184 24.824C30.875 22.8386 29.4993 19.8881 29.4993 16.5693H26.4025C26.4025 20.7507 28.138 24.5244 30.9139 27.0958L33.0184 24.824ZM24.0484 41.2036C24.0484 35.1312 27.5511 29.874 32.6533 27.3475L31.2791 24.5723C25.1625 27.6011 20.9516 33.9091 20.9516 41.2036H24.0484ZM24.0484 56.143V41.2036H20.9516V56.143H24.0484ZM56.5 54.5946H22.5V57.6914H56.5V54.5946ZM54.9516 41.2036V56.143H58.0484V41.2036H54.9516ZM46.4495 27.3989C51.496 29.9449 54.9516 35.1721 54.9516 41.2036H58.0484C58.0484 33.9583 53.894 27.6861 47.8444 24.634L46.4495 27.3989Z" fill="black" mask="url(#path-3-inside-2_1421_12530)"/>
</g>
<defs>
<filter id="filter0_d_1421_12530" x="0" y="0" width="61.5962" height="64.143" filterUnits="userSpaceOnUse" color-interpolation-filters="sRGB">
<feFlood flood-opacity="0" result="BackgroundImageFix"/>
<feColorMatrix in="SourceAlpha" type="matrix" values="0 0 0 0 0 0 0 0 0 0 0 0 0 0 0 0 0 0 127 0" result="hardAlpha"/>
<feOffset dy="4"/>
<feGaussianBlur stdDeviation="2"/>
<feComposite in2="hardAlpha" operator="out"/>
<feColorMatrix type="matrix" values="0 0 0 0 0 0 0 0 0 0 0 0 0 0 0 0 0 0 0.25 0"/>
<feBlend mode="normal" in2="BackgroundImageFix" result="effect1_dropShadow_1421_12530"/>
<feBlend mode="normal" in="SourceGraphic" in2="effect1_dropShadow_1421_12530" result="shape"/>
</filter>
</defs>
</svg>

<svg width="62" height="65" fill="none" xmlns="http://www.w3.org/2000/svg"><g filter="url(#a)"><mask id="b" fill="#fff"><path fill-rule="evenodd" clip-rule="evenodd" d="M30.15 25.02a12.76 12.76 0 0 0 4.07-9.45c0-6.86-5.2-12.93-11.63-12.93-6.43 0-11.64 6.07-11.64 12.93 0 3.75 1.56 7.11 4.02 9.39A17 17 0 0 0 5.5 40.2v14.94h34V40.2a17 17 0 0 0-9.35-15.18Z"/></mask><path fill-rule="evenodd" clip-rule="evenodd" d="M30.15 25.02a12.76 12.76 0 0 0 4.07-9.45c0-6.86-5.2-12.93-11.63-12.93-6.43 0-11.64 6.07-11.64 12.93 0 3.75 1.56 7.11 4.02 9.39A17 17 0 0 0 5.5 40.2v14.94h34V40.2a17 17 0 0 0-9.35-15.18Z" fill="#3076FF"/><path d="m30.15 25.02-1.05-1.15-1.66 1.52 2 1 .7-1.37Zm-15.18-.06.68 1.39 2.02-1-1.65-1.53-1.05 1.14ZM5.5 55.14H3.95v1.55H5.5v-1.55Zm34 0v1.55h1.55v-1.55H39.5Zm-6.82-39.57c0 3.35-1.4 6.32-3.58 8.3l2.1 2.29a14.3 14.3 0 0 0 4.57-10.6h-3.1ZM22.58 4.19c5.41 0 10.1 5.2 10.1 11.38h3.1c0-7.54-5.74-14.48-13.2-14.48v3.1ZM12.5 15.57c0-6.19 4.68-11.38 10.09-11.38V1.1C15.14 1.1 9.4 8.03 9.4 15.57h3.1Zm3.52 8.25a11.22 11.22 0 0 1-3.52-8.25H9.4c0 4.18 1.74 7.95 4.51 10.53l2.1-2.28ZM7.05 40.2c0-6.07 3.5-11.33 8.6-13.85l-1.37-2.78A18.55 18.55 0 0 0 3.95 40.2h3.1Zm0 14.94V40.2h-3.1v14.94h3.1ZM39.5 53.6h-34v3.1h34v-3.1ZM37.95 40.2v14.94h3.1V40.2h-3.1Zm-8.5-13.8a15.45 15.45 0 0 1 8.5 13.8h3.1c0-7.24-4.16-13.51-10.2-16.57l-1.4 2.77Z" fill="#000" mask="url(#b)"/><mask id="c" fill="#fff"><path fill-rule="evenodd" clip-rule="evenodd" d="M47.15 26.02a12.76 12.76 0 0 0 4.07-9.45c0-6.86-5.2-12.93-11.63-12.93-6.43 0-11.64 6.07-11.64 12.93 0 3.75 1.56 7.11 4.02 9.39A17 17 0 0 0 22.5 41.2v14.94h34V41.2a17 17 0 0 0-9.35-15.18Z"/></mask><path fill-rule="evenodd" clip-rule="evenodd" d="M47.15 26.02a12.76 12.76 0 0 0 4.07-9.45c0-6.86-5.2-12.93-11.63-12.93-6.43 0-11.64 6.07-11.64 12.93 0 3.75 1.56 7.11 4.02 9.39A17 17 0 0 0 22.5 41.2v14.94h34V41.2a17 17 0 0 0-9.35-15.18Z" fill="#3076FF"/><path d="m47.15 26.02-1.05-1.15-1.66 1.52 2.01 1 .7-1.37Zm-15.18-.06.68 1.39 2.02-1-1.65-1.53-1.05 1.14ZM22.5 56.14h-1.55v1.55h1.55v-1.55Zm34 0v1.55h1.55v-1.55H56.5Zm-6.82-39.57c0 3.35-1.4 6.32-3.58 8.3l2.1 2.29a14.3 14.3 0 0 0 4.57-10.6h-3.1ZM39.58 5.19c5.41 0 10.1 5.2 10.1 11.38h3.1c0-7.54-5.74-14.48-13.2-14.48v3.1ZM29.5 16.57c0-6.19 4.69-11.38 10.09-11.38V2.1c-7.45 0-13.19 6.94-13.19 14.48h3.1Zm3.52 8.25a11.22 11.22 0 0 1-3.52-8.25h-3.1c0 4.18 1.74 7.95 4.51 10.53l2.1-2.28ZM24.05 41.2c0-6.07 3.5-11.33 8.6-13.85l-1.37-2.78A18.55 18.55 0 0 0 20.95 41.2h3.1Zm0 14.94V41.2h-3.1v14.94h3.1ZM56.5 54.6h-34v3.1h34v-3.1ZM54.95 41.2v14.94h3.1V41.2h-3.1Zm-8.5-13.8a15.45 15.45 0 0 1 8.5 13.8h3.1c0-7.24-4.16-13.51-10.2-16.57l-1.4 2.77Z" fill="#000" mask="url(#c)"/></g><defs><filter id="a" x="0" y="0" width="61.6" height="64.14" filterUnits="userSpaceOnUse" color-interpolation-filters="sRGB"><feFlood flood-opacity="0" result="BackgroundImageFix"/><feColorMatrix in="SourceAlpha" values="0 0 0 0 0 0 0 0 0 0 0 0 0 0 0 0 0 0 127 0" result="hardAlpha"/><feOffset dy="4"/><feGaussianBlur stdDeviation="2"/><feComposite in2="hardAlpha" operator="out"/><feColorMatrix values="0 0 0 0 0 0 0 0 0 0 0 0 0 0 0 0 0 0 0.25 0"/><feBlend in2="BackgroundImageFix" result="effect1_dropShadow_1421_12530"/><feBlend in="SourceGraphic" in2="effect1_dropShadow_1421_12530" result="shape"/></filter></defs></svg>
